resources/haticons/SVG/cancel-circle.svg

<!-- Generated by IcoMoon.io -->
<svg version="1.1" xmlns="http://www.w3.org/2000/svg" width="24" height="24" viewBox="0 0 24 24">
<title>cancel-circle</title>
<path d="M12 0c-6.627 0-12 5.373-12 12s5.373 12 12 12 12-5.373 12-12-5.373-12-12-12zM12 21.75c-5.385 0-9.75-4.365-9.75-9.75s4.365-9.75 9.75-9.75 9.75 4.365 9.75 9.75-4.365 9.75-9.75 9.75z"></path>
<path d="M15.75 6l-3.75 3.75-3.75-3.75-2.25 2.25 3.75 3.75-3.75 3.75 2.25 2.25 3.75-3.75 3.75 3.75 2.25-2.25-3.75-3.75 3.75-3.75z"></path>
</svg>

<svg xmlns="http://www.w3.org/2000/svg" width="24" height="24"><path d="M12 0C5.373 0 0 5.373 0 12s5.373 12 12 12 12-5.373 12-12S18.627 0 12 0zm0 21.75c-5.385 0-9.75-4.365-9.75-9.75S6.615 2.25 12 2.25s9.75 4.365 9.75 9.75-4.365 9.75-9.75 9.75z"/><path d="M15.75 6L12 9.75 8.25 6 6 8.25 9.75 12 6 15.75 8.25 18 12 14.25 15.75 18 18 15.75 14.25 12 18 8.25z"/></svg>
